X: 3011
Q:"Strathspey."
M: C
L: 1/8
K: D
uF |\
(3FGA (3DEF (3GAB (3AGF | (3GFG (3EAG F<D D |]\
uB |\
(A<d) (de/f/) g>ag>e | a>ef>d e>dc>A |\
(A<d) (de/f/) g>ag>e |
f<a e>f d2(d<f) |\
(A<d) (de/f/) g>ag>e | a>ef>d e>dc>A |\
(3fdf (3ece (3dcB (3AGF | (3GFG (3EAG F<D D |]


